assets/images/sponsors-logos/cambridge-consultants.svg

<svg xmlns="http://www.w3.org/2000/svg" preserveAspectRatio="xMinYMin" viewBox="0 -1 1890 475" width="114pt">
  <path d="M625.49465 266.624c-13.68135-6.00933-28.19065-8.208-42.964-8.208-58.28535 0-100.976 39.14267-100.976 97.97894 0 60.73439 40.228 99.60253 100.708 99.60253 11.21865 0 29.00135-.812 43.50535-6.84267l-1.64135-26.55213c-9.57735 5.75053-27.916 9.31986-41.596 9.31986-39.68 0-71.96665-29.84373-71.96665-74.71466 0-42.9492 29.284-74.6972 73.33865-74.6972 13.94665 0 27.36135 3.54667 39.40135 10.668l2.19065-26.55467M669.98265 382.924c0-26.52906 16.144-52.252 43.78135-52.252 27.36665 0 43.51065 25.72294 43.51065 52.252 0 24.90533-13.40935 52.26933-43.51065 52.26933-30.37335 0-43.78135-27.364-43.78135-52.26933m-27.36535 0c0 39.9548 29.012 73.07347 71.1467 73.07347 41.864 0 70.87465-33.11867 70.87465-73.07347 0-42.41613-28.46135-73.05066-70.87465-73.05066-42.68935 0-71.1467 30.63453-71.1467 73.05066M809.4226 452.70267h25.7214v-64.5624c0-33.95213 13.1413-57.46827 42.42-57.46827 22.4346 1.37467 29.5546 17.23334 29.5546 49.7948v72.23587h25.72v-82.90773c0-37.49494-16.1466-59.9216-52.268-59.9216-19.4293 0-38.0346 9.57733-45.6986 25.44266h-.5454v-22.17333h-24.904v139.56M960.636 448.3412c11.7586 6.28813 25.1866 7.65627 38.3093 7.65627 24.9067 0 48.7027-13.6844 48.7027-43.50827 0-44.59586-60.456-36.38386-60.456-64.86253 0-11.47733 11.4773-16.95467 24.6226-16.95467 6.0094 0 21.336 3.55467 27.0907 7.1l2.1787-22.42533c-10.112-3.01733-19.9894-5.47333-32.0214-5.47333-27.6266 0-49.2586 13.96266-49.2586 42.94653 0 39.1428 60.48 36.94533 60.48 62.4084 0 15.04626-14.4947 19.96506-26.252 19.96506-7.396 0-21.9147-3.2708-32.0267-9.85306l-1.3693 23.00093M1195.328 313.14267h-25.7187v64.58667c0 33.92653-13.1293 57.46399-42.4173 57.46399-22.4454-1.36933-29.5387-17.23066-29.5387-49.78959v-72.26107h-25.74v82.93093c0 37.4728 16.1653 59.92387 52.2707 59.92387 19.4333 0 38.0306-9.57867 45.7053-25.44427h.5307v22.14947h24.908v-139.56M1227.2213 452.70267h25.7427V247.472h-25.7427v205.23067M1370.0133 313.14267h-36.9453v-40.48533l-25.7134 8.204v32.28133H1275.88v20.804h31.4746v81.56026c0 27.8932 16.416 40.49054 42.9654 40.49054 8.2133 0 16.12-2.18174 21.8666-3.83067v-21.89227c-3.8266 2.45734-9.5466 4.9188-17.5066 4.9188-11.76 0-21.612-8.74373-21.612-24.9068v-76.33986h36.9453v-20.804M1486.48 398.52934c0 20.79999-13.3867 36.66399-38.84 36.66399-11.76 0-26-7.92653-26-22.70413 0-24.6276 34.48-26.82653 48.4266-26.82653 5.4934 0 10.96.55613 16.4134.55613v12.31054m-74.9734-53.6376c10.4134-8.7424 26-14.21974 40.52-14.21974 25.7067 0 34.4534 12.32134 34.4534 36.388-10.1067-.55306-17.2267-.55306-27.3467-.55306-26.5467 0-64.8533 10.94373-64.8533 45.98226 0 30.3812 21.08 43.50827 51.16 43.50827 23.5466 0 37.2133-12.876 43.24-21.33587h.56v18.04107h24.0666c-.56-4.10254-1.0933-11.4812-1.0933-27.3624v-57.724c0-38.0536-16.1333-57.74293-56.0933-57.74293-17.7867 0-33.1067 5.47333-45.9867 13.12933l1.3733 21.88907M1540.6533 452.70267h25.72v-64.5624c0-33.95213 13.1333-57.46827 42.4133-57.46827 22.44 1.37467 29.5467 17.23334 29.5467 49.7948v72.23587h25.7333v-82.90773c0-37.49494-16.16-59.9216-52.2666-59.9216-19.4267 0-38.0267 9.57733-45.7067 25.44266h-.5333v-22.17333h-24.9067v139.56M1775.04 313.14267h-36.9334v-40.48533l-25.72 8.204v32.28133H1680.92v20.804h31.4666v81.56026c0 27.8932 16.4134 40.49054 42.9467 40.49054 8.2133 0 16.1467-2.18174 21.8933-3.83067v-21.89227c-3.8266 2.45734-9.5733 4.9188-17.5066 4.9188-11.76 0-21.6134-8.74373-21.6134-24.9068v-76.33986h36.9334v-20.804M1802.3333 448.3412c11.7467 6.28813 25.1733 7.65627 38.3067 7.65627 24.9066 0 48.6933-13.6844 48.6933-43.50827 0-44.59586-60.48-36.38386-60.48-64.86253 0-11.47733 11.5067-16.95467 24.6267-16.95467 6.0266 0 21.36 3.55467 27.12 7.1l2.1733-22.42533c-10.12-3.01733-19.9733-5.47333-32.0267-5.47333-27.6266 0-49.2533 13.96266-49.2533 42.94653 0 39.1428 60.4933 36.94533 60.4933 62.4084 0 15.04626-14.5066 19.96506-26.2666 19.96506-7.4 0-21.92-3.2708-32.0267-9.85306l-1.36 23.00093M625.49465 19.261345c-13.68135-6.021334-28.19065-8.210667-42.964-8.210667-58.28535 0-100.976 39.129332-100.976 97.961332 0 60.75333 40.228 99.60799 100.708 99.60799 11.21865 0 29.00135-.81733 43.50535-6.83866l-1.64135-26.54267c-9.57735 5.748-27.916 9.3-41.596 9.3-39.68 0-71.96665-29.824-71.96665-74.70533 0-42.95733 29.284-74.69733 73.33865-74.69733 13.94665 0 27.36135 3.56 39.40135 10.66667l2.19065-26.541335M743.0373 151.16267c0 20.796-13.4013 36.66-38.85465 36.66-11.76935 0-26-7.932-26-22.71333 0-24.63067 34.48135-26.81333 48.436-26.81333 5.47865 0 10.94935.548 16.41865.548v12.31866M668.056 97.52134c10.4-8.75466 25.9973-14.22933 40.5-14.22933 25.72665 0 34.4813 12.312 34.4813 36.392-10.12265-.544-17.2373-.544-27.36-.544-26.54265 0-64.85465 10.94933-64.85465 45.96933 0 30.38 21.072 43.51066 51.17335 43.51066 23.532 0 37.216-12.85733 43.23065-21.34133h.552V205.34h24.08c-.544-4.10933-1.096-11.49466-1.096-27.36666v-57.74533c0-38.02667-16.14665-57.73333-56.09865-57.73333-17.788 0-33.108 5.47466-45.9707 13.13733l1.3627 21.88933M799.6506 205.34H825.38v-70.32532c0-26.00267 10.3986-51.72267 36.6626-51.72267 20.7974 0 24.9027 21.61867 24.9027 38.86V205.34h25.7227v-70.32532c0-26.00267 10.4-51.72267 36.676-51.72267 20.7853 0 24.8893 21.61867 24.8893 38.86V205.34h25.72v-89.48666c0-30.37333-12.848-53.35866-48.4173-53.35866-12.592 0-33.6667 7.11333-43.2427 27.092-7.3867-18.884-23.5307-27.092-39.6853-27.092-20.5174 0-34.4694 7.392-44.3187 23.532h-.556V65.78001h-24.0827V205.34M1136.1506 135.01468c.556 21.88532-10.9453 52.80799-38.5866 52.80799-28.9854 0-41.0467-28.732-41.0467-51.98533 0-26.004 13.428-52.54533 41.3253-52.54533 27.9187 0 38.864 26.54133 38.308 51.72267M1030.8026 205.34h24.624v-19.70666h.5547c6.8427 10.40133 22.704 22.98666 47.612 22.98666 42.1373 0 59.9267-37.21066 59.9267-75.52666 0-37.48933-19.692-70.59866-60.2054-70.59866-24.3453 0-38.308 9.57733-46.2413 22.44133h-.556V.10667849h-25.7147V205.34M1188.3173 205.34h25.7173v-63.48666c0-35.02533 15.052-56.91733 38.032-56.91733 4.3787 0 9.5774.544 14.236 2.45733v-22.98c-5.4706-1.092-9.3226-1.91866-16.9693-1.91866-14.7773 0-29.5467 10.4-36.3907 24.89866h-.5546V65.78001h-24.0707V205.34M1323.9426 5.5786784h-28.9906V34.589344h28.9906V5.5786784M1296.5773 205.34h25.7413V65.78001h-25.7413V205.34M1377.7866 135.01468c-.5466-25.45334 10.4-51.72267 38.2934-51.72267 27.92 0 41.3466 26.54133 41.3466 52.54533 0 23.25333-12.0533 51.98533-41.04 51.98533-27.6533 0-39.1466-30.92267-38.6-52.80799m80.7067 70.32532h24.6533V.10667849h-25.72V84.93601h-.56c-7.9333-12.864-21.88-22.44133-46.24-22.44133-40.5066 0-60.2 33.10933-60.2 70.59866 0 38.04266 17.7734 75.52666 59.92 75.52666 24.92 0 40.7734-12.58533 47.6134-22.98666h.5333V205.34M1576.8933 184.53867c-24.0933 0-38.8667-22.98133-38.8667-49.25199 0-23.80667 12.8667-51.99467 38.8667-51.99467 27.36 0 40.76 24.90133 40.76 53.91333 0 25.98666-16.6933 47.33333-40.76 47.33333m66.48-118.75866h-23.8v20.796h-.5467c-7.6533-15.04267-21.36-24.08133-45.9866-24.08133-42.1334 0-62.3734 38.30933-62.3734 74.15466 0 36.12666 19.7067 68.69066 59.6667 68.69066 17.76 0 35.8267-7.12 46.7733-21.62h.5467v13.68134c0 29.552-16.1333 47.888-43.2267 47.888-18.88 0-30.6533-3.548-50.36-12.58934l-2.72 23.812c22.4267 7.656 35.28 9.58 50.0667 9.58 50.0667 0 71.96-24.35066 71.96-66.77733V65.78001M1698.2533 122.15201c1.9333-18.06 12.32-38.86 37.4933-38.86 22.1734 0 34.7734 17.512 34.7734 38.86h-72.2667m88.96 51.71999c-6.3067 5.196-26 13.95067-42.9733 13.95067-24.3467 0-45.9867-18.88133-45.9867-46.51067h99.6267c0-44.88666-15.0534-78.81732-61.5734-78.81732-39.4 0-65.4 29.28933-65.4 70.59866 0 45.42533 22.7067 75.52666 72.24 75.52666 22.9867 0 34.2-5.47066 44.0667-9.02933V173.872" fill="#656263"/>
  <path d="M0 35.67601h76.0156v30.53867C44.89373 83.22134 18.662 108.06934 0 138.11201v-102.436m312.27333 361.46786h60.05333V473.16H0V353.97614C36.1224 412.10373 100.56973 450.824 174.06266 450.824c53.26934 0 101.788-20.33333 138.21067-53.68013" fill="#b2b1b1"/>
  <path d="M60.5016-.0053215h372.3237V412.66H293.14c51.88532-37.15466 85.7-97.932 85.7-166.62 0-113.09599-91.684-204.781323-204.77734-204.781323-42.01266 0-81.06213 12.648003-113.56106 34.344003V-.0053215" fill="#1c418b"/>
  </svg>

<?xml version="1.0" encoding="UTF-8" standalone="no"?>
<!DOCTYPE svg PUBLIC "-//W3C//DTD SVG 1.1//EN" "http://www.w3.org/Graphics/SVG/1.1/DTD/svg11.dtd">
<svg xmlns="http://www.w3.org/2000/svg" xmlns:xl="http://www.w3.org/1999/xlink" version="1.1" preserveAspectRatio="xMinYMin" viewBox="0 -1 1890 475" width="1890pt" height="475pt" xmlns:dc="http://purl.org/dc/elements/1.1/">
  <metadata> Produced by OmniGraffle 7.5 
    <dc:date>2017-12-02 15:49:55 +0000</dc:date>
  </metadata>
  <defs/>
  <g>
    <title>Canvas 1</title>
    <g>
      <title>Layer 1</title>
      <path d="M 625.49465 266.624 C 611.8133 260.61467 597.304 258.416 582.53065 258.416 C 524.2453 258.416 481.55465 297.55867 481.55465 356.39494 C 481.55465 417.12933 521.78265 455.99747 582.26265 455.99747 C 593.4813 455.99747 611.264 455.18547 625.768 449.1548 L 624.12665 422.60267 C 614.5493 428.3532 596.21065 431.92253 582.53065 431.92253 C 542.85065 431.92253 510.564 402.0788 510.564 357.20787 C 510.564 314.25867 539.848 282.51067 583.90265 282.51067 C 597.8493 282.51067 611.264 286.05734 623.304 293.17867 L 625.49465 266.624" fill="#656263"/>
      <path d="M 669.98265 382.924 C 669.98265 356.39494 686.12665 330.672 713.764 330.672 C 741.13065 330.672 757.27465 356.39494 757.27465 382.924 C 757.27465 407.82933 743.8653 435.19333 713.764 435.19333 C 683.39065 435.19333 669.98265 407.82933 669.98265 382.924 L 669.98265 382.924 M 642.6173 382.924 C 642.6173 422.8788 671.6293 455.99747 713.764 455.99747 C 755.628 455.99747 784.63865 422.8788 784.63865 382.924 C 784.63865 340.50787 756.1773 309.87334 713.764 309.87334 C 671.07465 309.87334 642.6173 340.50787 642.6173 382.924" fill="#656263"/>
      <path d="M 809.4226 452.70267 L 835.144 452.70267 L 835.144 388.14027 C 835.144 354.18814 848.2853 330.672 877.564 330.672 C 899.9986 332.04667 907.1186 347.90534 907.1186 380.4668 L 907.1186 452.70267 L 932.8386 452.70267 L 932.8386 369.79494 C 932.8386 332.3 916.692 309.87334 880.5706 309.87334 C 861.1413 309.87334 842.536 319.45067 834.872 335.316 L 834.3266 335.316 L 834.3266 313.14267 L 809.4226 313.14267 L 809.4226 452.70267" fill="#656263"/>
      <path d="M 960.636 448.3412 C 972.3946 454.62933 985.8226 455.99747 998.9453 455.99747 C 1023.852 455.99747 1047.648 442.31307 1047.648 412.4892 C 1047.648 367.89334 987.192 376.10534 987.192 347.62667 C 987.192 336.14934 998.6693 330.672 1011.8146 330.672 C 1017.824 330.672 1033.1506 334.22667 1038.9053 337.772 L 1041.084 315.34667 C 1030.972 312.32934 1021.0946 309.87334 1009.0626 309.87334 C 981.436 309.87334 959.804 323.836 959.804 352.81987 C 959.804 391.96267 1020.284 389.7652 1020.284 415.22827 C 1020.284 430.27453 1005.7893 435.19333 994.032 435.19333 C 986.636 435.19333 972.1173 431.92253 962.0053 425.34027 L 960.636 448.3412" fill="#656263"/>
      <path d="M 1195.328 313.14267 L 1169.6093 313.14267 L 1169.6093 377.72934 C 1169.6093 411.65587 1156.48 435.19333 1127.192 435.19333 C 1104.7466 433.824 1097.6533 417.96267 1097.6533 385.40374 L 1097.6533 313.14267 L 1071.9133 313.14267 L 1071.9133 396.0736 C 1071.9133 433.5464 1088.0786 455.99747 1124.184 455.99747 C 1143.6173 455.99747 1162.2146 446.4188 1169.8893 430.5532 L 1170.42 430.5532 L 1170.42 452.70267 L 1195.328 452.70267 L 1195.328 313.14267" fill="#656263"/>
      <path d="M 1227.2213 452.70267 L 1252.964 452.70267 L 1252.964 247.472 L 1227.2213 247.472 L 1227.2213 452.70267" fill="#656263"/>
      <path d="M 1370.0133 313.14267 L 1333.068 313.14267 L 1333.068 272.65734 L 1307.3546 280.86134 L 1307.3546 313.14267 L 1275.88 313.14267 L 1275.88 333.94667 L 1307.3546 333.94667 L 1307.3546 415.50693 C 1307.3546 443.40013 1323.7706 455.99747 1350.32 455.99747 C 1358.5333 455.99747 1366.44 453.81573 1372.1866 452.1668 L 1372.1866 430.27453 C 1368.36 432.73187 1362.64 435.19333 1354.68 435.19333 C 1342.92 435.19333 1333.068 426.4496 1333.068 410.28653 L 1333.068 333.94667 L 1370.0133 333.94667 L 1370.0133 313.14267" fill="#656263"/>
      <path d="M 1486.48 398.52934 C 1486.48 419.32933 1473.0933 435.19333 1447.64 435.19333 C 1435.88 435.19333 1421.64 427.2668 1421.64 412.4892 C 1421.64 387.8616 1456.12 385.66267 1470.0666 385.66267 C 1475.56 385.66267 1481.0266 386.2188 1486.48 386.2188 L 1486.48 398.52934 L 1486.48 398.52934 M 1411.5066 344.89174 C 1421.92 336.14934 1437.5066 330.672 1452.0266 330.672 C 1477.7333 330.672 1486.48 342.99334 1486.48 367.06 C 1476.3733 366.50694 1469.2533 366.50694 1459.1333 366.50694 C 1432.5866 366.50694 1394.28 377.45067 1394.28 412.4892 C 1394.28 442.8704 1415.36 455.99747 1445.44 455.99747 C 1468.9866 455.99747 1482.6533 443.12147 1488.68 434.6616 L 1489.24 434.6616 L 1489.24 452.70267 L 1513.3066 452.70267 C 1512.7466 448.60013 1512.2133 441.22147 1512.2133 425.34027 L 1512.2133 367.61627 C 1512.2133 329.56267 1496.08 309.87334 1456.12 309.87334 C 1438.3333 309.87334 1423.0133 315.34667 1410.1333 323.00267 L 1411.5066 344.89174" fill="#656263"/>
      <path d="M 1540.6533 452.70267 L 1566.3733 452.70267 L 1566.3733 388.14027 C 1566.3733 354.18814 1579.5066 330.672 1608.7866 330.672 C 1631.2266 332.04667 1638.3333 347.90534 1638.3333 380.4668 L 1638.3333 452.70267 L 1664.0666 452.70267 L 1664.0666 369.79494 C 1664.0666 332.3 1647.9066 309.87334 1611.8 309.87334 C 1592.3733 309.87334 1573.7733 319.45067 1566.0933 335.316 L 1565.56 335.316 L 1565.56 313.14267 L 1540.6533 313.14267 L 1540.6533 452.70267" fill="#656263"/>
      <path d="M 1775.04 313.14267 L 1738.1066 313.14267 L 1738.1066 272.65734 L 1712.3866 280.86134 L 1712.3866 313.14267 L 1680.92 313.14267 L 1680.92 333.94667 L 1712.3866 333.94667 L 1712.3866 415.50693 C 1712.3866 443.40013 1728.8 455.99747 1755.3333 455.99747 C 1763.5466 455.99747 1771.48 453.81573 1777.2266 452.1668 L 1777.2266 430.27453 C 1773.4 432.73187 1767.6533 435.19333 1759.72 435.19333 C 1747.96 435.19333 1738.1066 426.4496 1738.1066 410.28653 L 1738.1066 333.94667 L 1775.04 333.94667 L 1775.04 313.14267" fill="#656263"/>
      <path d="M 1802.3333 448.3412 C 1814.08 454.62933 1827.5066 455.99747 1840.64 455.99747 C 1865.5466 455.99747 1889.3333 442.31307 1889.3333 412.4892 C 1889.3333 367.89334 1828.8533 376.10534 1828.8533 347.62667 C 1828.8533 336.14934 1840.36 330.672 1853.48 330.672 C 1859.5066 330.672 1874.84 334.22667 1880.6 337.772 L 1882.7733 315.34667 C 1872.6533 312.32934 1862.8 309.87334 1850.7466 309.87334 C 1823.12 309.87334 1801.4933 323.836 1801.4933 352.81987 C 1801.4933 391.96267 1861.9866 389.7652 1861.9866 415.22827 C 1861.9866 430.27453 1847.48 435.19333 1835.72 435.19333 C 1828.32 435.19333 1813.8 431.92253 1803.6933 425.34027 L 1802.3333 448.3412" fill="#656263"/>
      <path d="M 625.49465 19.261345 C 611.8133 13.240011 597.304 11.050678 582.53065 11.050678 C 524.2453 11.050678 481.55465 50.18001 481.55465 109.01201 C 481.55465 169.76534 521.78265 208.62 582.26265 208.62 C 593.4813 208.62 611.264 207.80267 625.768 201.78134 L 624.12665 175.23867 C 614.5493 180.98667 596.21065 184.53867 582.53065 184.53867 C 542.85065 184.53867 510.564 154.71467 510.564 109.83334 C 510.564 66.87601 539.848 35.13601 583.90265 35.13601 C 597.8493 35.13601 611.264 38.69601 623.304 45.80268 L 625.49465 19.261345" fill="#656263"/>
      <path d="M 743.0373 151.16267 C 743.0373 171.95867 729.636 187.82267 704.18265 187.82267 C 692.4133 187.82267 678.18265 179.89067 678.18265 165.10934 C 678.18265 140.47867 712.664 138.29601 726.61865 138.29601 C 732.0973 138.29601 737.568 138.84401 743.0373 138.84401 L 743.0373 151.16267 M 668.056 97.52134 C 678.456 88.76668 694.0533 83.29201 708.556 83.29201 C 734.28265 83.29201 743.0373 95.60401 743.0373 119.68401 C 732.91465 119.14001 725.8 119.14001 715.6773 119.14001 C 689.13465 119.14001 650.82265 130.08934 650.82265 165.10934 C 650.82265 195.48934 671.89465 208.62 701.996 208.62 C 725.528 208.62 739.212 195.76267 745.22665 187.27867 L 745.77865 187.27867 L 745.77865 205.34 L 769.85865 205.34 C 769.31465 201.23067 768.76265 193.84534 768.76265 177.97334 L 768.76265 120.22801 C 768.76265 82.20134 752.616 62.49468 712.664 62.49468 C 694.876 62.49468 679.556 67.96934 666.6933 75.63201 L 668.056 97.52134" fill="#656263"/>
      <path d="M 799.6506 205.34 L 825.38 205.34 L 825.38 135.01468 C 825.38 109.01201 835.7786 83.29201 862.0426 83.29201 C 882.84 83.29201 886.9453 104.91068 886.9453 122.15201 L 886.9453 205.34 L 912.668 205.34 L 912.668 135.01468 C 912.668 109.01201 923.068 83.29201 949.344 83.29201 C 970.1293 83.29201 974.2333 104.91068 974.2333 122.15201 L 974.2333 205.34 L 999.9533 205.34 L 999.9533 115.85334 C 999.9533 85.48001 987.1053 62.49468 951.536 62.49468 C 938.944 62.49468 917.8693 69.60801 908.2933 89.58668 C 900.9066 70.70268 884.7626 62.49468 868.608 62.49468 C 848.0906 62.49468 834.1386 69.88668 824.2893 86.02668 L 823.7333 86.02668 L 823.7333 65.78001 L 799.6506 65.78001 L 799.6506 205.34" fill="#656263"/>
      <path d="M 1136.1506 135.01468 C 1136.7066 156.9 1125.2053 187.82267 1097.564 187.82267 C 1068.5786 187.82267 1056.5173 159.09067 1056.5173 135.83734 C 1056.5173 109.83334 1069.9453 83.29201 1097.8426 83.29201 C 1125.7613 83.29201 1136.7066 109.83334 1136.1506 135.01468 M 1030.8026 205.34 L 1055.4266 205.34 L 1055.4266 185.63334 L 1055.9813 185.63334 C 1062.824 196.03467 1078.6853 208.62 1103.5933 208.62 C 1145.7306 208.62 1163.52 171.40934 1163.52 133.09334 C 1163.52 95.60401 1143.828 62.49468 1103.3146 62.49468 C 1078.9693 62.49468 1065.0066 72.07201 1057.0733 84.93601 L 1056.5173 84.93601 L 1056.5173 .10667849 L 1030.8026 .10667849 L 1030.8026 205.34" fill="#656263"/>
      <path d="M 1188.3173 205.34 L 1214.0346 205.34 L 1214.0346 141.85334 C 1214.0346 106.82801 1229.0866 84.93601 1252.0666 84.93601 C 1256.4453 84.93601 1261.644 85.48001 1266.3026 87.39334 L 1266.3026 64.41334 C 1260.832 63.32134 1256.98 62.49468 1249.3333 62.49468 C 1234.556 62.49468 1219.7866 72.89468 1212.9426 87.39334 L 1212.388 87.39334 L 1212.388 65.78001 L 1188.3173 65.78001 L 1188.3173 205.34" fill="#656263"/>
      <path d="M 1323.9426 5.5786784 L 1294.952 5.5786784 L 1294.952 34.589344 L 1323.9426 34.589344 L 1323.9426 5.5786784 M 1296.5773 205.34 L 1322.3186 205.34 L 1322.3186 65.78001 L 1296.5773 65.78001 L 1296.5773 205.34" fill="#656263"/>
      <path d="M 1377.7866 135.01468 C 1377.24 109.56134 1388.1866 83.29201 1416.08 83.29201 C 1444 83.29201 1457.4266 109.83334 1457.4266 135.83734 C 1457.4266 159.09067 1445.3733 187.82267 1416.3866 187.82267 C 1388.7333 187.82267 1377.24 156.9 1377.7866 135.01468 L 1377.7866 135.01468 M 1458.4933 205.34 L 1483.1466 205.34 L 1483.1466 .10667849 L 1457.4266 .10667849 L 1457.4266 84.93601 L 1456.8666 84.93601 C 1448.9333 72.07201 1434.9866 62.49468 1410.6266 62.49468 C 1370.12 62.49468 1350.4266 95.60401 1350.4266 133.09334 C 1350.4266 171.136 1368.2 208.62 1410.3466 208.62 C 1435.2666 208.62 1451.12 196.03467 1457.96 185.63334 L 1458.4933 185.63334 L 1458.4933 205.34" fill="#656263"/>
      <path d="M 1576.8933 184.53867 C 1552.8 184.53867 1538.0266 161.55734 1538.0266 135.28668 C 1538.0266 111.48001 1550.8933 83.29201 1576.8933 83.29201 C 1604.2533 83.29201 1617.6533 108.19334 1617.6533 137.20534 C 1617.6533 163.192 1600.96 184.53867 1576.8933 184.53867 M 1643.3733 65.78001 L 1619.5733 65.78001 L 1619.5733 86.57601 L 1619.0266 86.57601 C 1611.3733 71.53334 1597.6666 62.49468 1573.04 62.49468 C 1530.9066 62.49468 1510.6666 100.80401 1510.6666 136.64934 C 1510.6666 172.776 1530.3733 205.34 1570.3333 205.34 C 1588.0933 205.34 1606.16 198.22 1617.1066 183.72 L 1617.6533 183.72 L 1617.6533 197.40134 C 1617.6533 226.95334 1601.52 245.28934 1574.4266 245.28934 C 1555.5466 245.28934 1543.7733 241.74134 1524.0666 232.7 L 1521.3466 256.512 C 1543.7733 264.168 1556.6266 266.092 1571.4133 266.092 C 1621.48 266.092 1643.3733 241.74134 1643.3733 199.31467 L 1643.3733 65.78001" fill="#656263"/>
      <path d="M 1698.2533 122.15201 C 1700.1866 104.09201 1710.5733 83.29201 1735.7466 83.29201 C 1757.92 83.29201 1770.52 100.80401 1770.52 122.15201 L 1698.2533 122.15201 M 1787.2133 173.872 C 1780.9066 179.068 1761.2133 187.82267 1744.24 187.82267 C 1719.8933 187.82267 1698.2533 168.94134 1698.2533 141.312 L 1797.88 141.312 C 1797.88 96.42534 1782.8266 62.49468 1736.3066 62.49468 C 1696.9066 62.49468 1670.9066 91.78401 1670.9066 133.09334 C 1670.9066 178.51867 1693.6133 208.62 1743.1466 208.62 C 1766.1333 208.62 1777.3466 203.14934 1787.2133 199.59067 L 1787.2133 173.872" fill="#656263"/>
      <path d="M 2842171e-20 35.67601 L 76.0156 35.67601 L 76.0156 66.21468 C 44.89373 83.22134 18.662 108.06934 2842171e-20 138.11201 L 2842171e-20 35.67601 M 312.27333 397.14387 L 372.32666 397.14387 L 372.32666 473.16 L 2842171e-20 473.16 L 2842171e-20 353.97614 C 36.1224 412.10373 100.56973 450.824 174.06266 450.824 C 227.332 450.824 275.85066 430.49067 312.27333 397.14387" fill="#b2b1b1"/>
      <path d="M 60.5016 -.005321504 L 432.8253 -.005321504 L 432.8253 412.66 L 293.14 412.66 C 345.02532 375.50534 378.84 314.728 378.84 246.04 C 378.84 132.94401 287.156 41.258677 174.06266 41.258677 C 132.05 41.258677 93.00053 53.90668 60.5016 75.60268 L 60.5016 -.005321504" fill="#1c418b"/>
    </g>
  </g>
</svg>
